outputs/icons/communication/comms_chat_unread_sharp.svg

<svg xmlns="http://www.w3.org/2000/svg" width="1200" height="1200" fill="none"><path fill="#000" d="M625.64 150c27.44.001 54.325 2.429 80.495 6.885-15.85 22.497-28.44 47.439-37.095 74.169a402 402 0 0 0-43.4-2.343c-218.325 0-395.327 176.174-395.33 393.504 0 73.435 20.158 142.07 55.258 200.83a39.21 39.21 0 0 1 4.057 30.91l-92.939 161.77H625.64c218.31-.015 395.28-176.18 395.28-393.51 0-13.935-.745-27.695-2.165-41.26 26.885-8.68 51.95-21.345 74.55-37.305 4.305 25.565 6.67 51.79 6.67 78.565 0 260.795-212.36 472.21-474.335 472.22H151.254c-26.35 0-52.736-26.22-51.202-50.15L209.036 848.24c-36.845-67.16-57.782-144.21-57.782-226.025C151.256 361.418 363.65 150 625.64 150"/><path fill="#000" d="M1099.99 300c0 82.843-67.155 150-150 150-82.84 0-150-67.157-150-150s67.16-150 150-150c82.845 0 150 67.157 150 150"/></svg>

<svg width="1200" height="1200" viewBox="0 0 1200 1200" fill="none" xmlns="http://www.w3.org/2000/svg"><path d="M625.64 150C653.08 150.001 679.965 152.429 706.135 156.885C690.285 179.382 677.695 204.324 669.04 231.054C654.79 229.505 640.305 228.712 625.64 228.711C407.315 228.711 230.313 404.885 230.31 622.215C230.31 695.65 250.468 764.285 285.568 823.045C291.13 832.35 292.608 843.54 289.625 853.955L196.686 1015.725H625.64C843.95 1015.71 1020.92 839.545 1020.92 622.215C1020.92 608.28 1020.175 594.52 1018.755 580.955C1045.64 572.275 1070.705 559.61 1093.305 543.65C1097.61 569.215 1099.975 595.44 1099.975 622.215C1099.975 883.01 887.615 1094.425 625.64 1094.435H151.254C124.904 1094.435 98.518 1068.215 100.052 1044.285L209.036 848.24C172.191 781.08 151.254 704.03 151.254 622.215C151.256 361.418 363.65 150 625.64 150Z" fill="black"/><path d="M1099.99 300C1099.99 382.843 1032.835 450 949.99 450C867.15 450 799.99 382.843 799.99 300C799.99 217.157 867.15 150 949.99 150C1032.835 150 1099.99 217.157 1099.99 300Z" fill="black"/></svg>
